build/assets/fonts/eb61d075dbf8722029027b09b39cc3a8.svg

<svg width="100" height="60" viewBox="0 0 100 60" version="1.1" xmlns="http://www.w3.org/2000/svg" xmlns:xlink="http://www.w3.org/1999/xlink"><title>Clickandbuy-light</title><desc>Created with Sketch.</desc><g id="Light-Payment-badges" stroke="none" stroke-width="1" fill="none" fill-rule="evenodd" transform="translate(-770.000000, -789.000000)"><g id="Clickandbuy-light" transform="translate(770.000000, 789.000000)"><rect id="Rectangle" fill="#FFF" x="0" y="0" width="100" height="60" rx="4"/><path d="M66.490919,18.6341514 L57.8776331,10.0665884 C57.8776331,10.0665884 56.7618475,8.95547495 55.1859625,8.95547495 C55.1859625,8.95547495 53.6102268,8.95547495 52.494292,10.0665884 C52.494292,10.0665884 51.3785064,11.1777019 51.3785064,12.7469882 C51.3785064,12.7469882 51.3785064,14.3162744 52.494292,15.4273879 L54.5889076,17.503576 L46.5529836,17.503576 C46.5529836,17.503576 44.9577041,17.503576 43.8419185,18.6243462 C43.8419185,18.6243462 42.7162864,19.7354596 42.7162864,21.3145511 C42.7162864,21.3145511 42.7162864,22.8934941 43.8419185,24.0144128 C43.8419185,24.0144128 44.9577041,25.1255263 46.5529836,25.1255263 L54.5889076,25.1255263 L52.494292,27.2113711 C52.494292,27.2113711 51.3785064,28.3224846 51.3785064,29.8917708 C51.3785064,29.8917708 51.3785064,31.461057 52.494292,32.5723191 C52.494292,32.5723191 53.6100776,33.6736273 55.1859625,33.6736273 C55.1859625,33.6736273 56.7616983,33.6736273 57.8776331,32.5723191 L66.4812217,23.9949509 C66.4812217,23.9949509 67.5970073,22.8838374 67.5970073,21.3145511 C67.5970073,21.3145511 67.5970073,19.7452649 66.490919,18.6341514" id="path7283_4_" fill="#FF8000"/><path d="M35.4925481,16.031748 C35.4925481,16.031748 37.5970102,16.031748 39.0847243,17.5132327 C39.0847243,17.5132327 40.5725876,18.9947173 40.5725876,21.0903674 C40.5725876,21.0903674 40.5725876,23.1858689 39.0847243,24.6675021 C39.0847243,24.6675021 37.5970102,26.1491353 35.4925481,26.1491353 C35.4925481,26.1491353 33.3882353,26.1491353 31.900372,24.6675021 C31.900372,24.6675021 30.4126578,23.1860174 30.4126578,21.0903674 C30.4126578,21.0903674 30.4126578,18.9947173 31.900372,17.5132327 C31.9005212,17.5132327 33.3882353,16.031748 35.4925481,16.031748" id="path7285_4_" fill="#FF8000"/><path d="M21.8469632,48.152421 C21.8469632,48.152421 21.1398067,48.2902888 20.5100793,48.2902888 C18.6505858,48.2902888 17.6056651,47.2801991 17.6056651,45.382734 L17.6056651,43.2404348 C17.6056651,41.3431182 18.6352194,40.3331771 20.5100793,40.3331771 C21.2014218,40.3331771 21.8469632,40.4708964 21.8469632,40.4708964 C22.0464291,40.5016492 22.1387772,40.6087642 22.1387772,40.7770877 L22.1387772,41.7103695 C22.1387772,41.8789902 22.0312118,41.970803 21.8469632,41.9552037 C21.8469632,41.9552037 21.1859061,41.8632423 20.6176447,41.8632423 C19.6186742,41.8632423 19.2961273,42.4447236 19.2961273,43.271039 L19.2961273,45.3366791 C19.2961273,46.1940445 19.6497055,46.760075 20.6330112,46.760075 C21.2324531,46.760075 21.8623297,46.6682622 21.8623297,46.6682622 C22.031361,46.6529601 22.1389264,46.7296193 22.1389264,46.8979428 L22.1389264,47.8312247 C22.1387772,47.9993996 22.062094,48.1065146 21.8469632,48.152421" id="path4056_4_" fill="#FF8000"/><path d="M24.6132283,48.1371189 L23.5066924,48.1371189 C23.3373628,48.1371189 23.2145801,48.0147018 23.2145801,47.8463782 L23.2145801,37.5636387 C23.2145801,37.394721 23.3373628,37.272601 23.5066924,37.272601 L24.6132283,37.272601 C24.7821104,37.272601 24.9050423,37.394721 24.9050423,37.5636387 L24.9050423,47.8463782 C24.9048931,48.0147018 24.7821104,48.1371189 24.6132283,48.1371189" id="path4058_4_" fill="#FF8000"/><path d="M27.6092447,48.1371189 L26.5030072,48.1371189 C26.3339759,48.1371189 26.2108948,48.0147018 26.2108948,47.8463782 L26.2108948,40.7769391 C26.2108948,40.6086156 26.3339759,40.4860499 26.5030072,40.4860499 L27.6092447,40.4860499 C27.7784252,40.4860499 27.9015062,40.6086156 27.9015062,40.7769391 L27.9015062,47.8463782 C27.9016554,48.0147018 27.7785743,48.1371189 27.6092447,48.1371189 M27.6092447,38.9561333 L26.5030072,38.9561333 C26.3339759,38.9561333 26.2108948,38.8337162 26.2108948,38.6655412 L26.2108948,37.5636387 C26.2108948,37.394721 26.3339759,37.272601 26.5030072,37.272601 L27.6092447,37.272601 C27.7784252,37.272601 27.9015062,37.394721 27.9015062,37.5636387 L27.9015062,38.6655412 C27.9016554,38.8337162 27.7785743,38.9561333 27.6092447,38.9561333" id="path4060_4_" fill="#FF8000"/><path d="M33.4485077,48.152421 C33.4485077,48.152421 32.7416495,48.2902888 32.1120714,48.2902888 C30.2524287,48.2902888 29.2076571,47.2801991 29.2076571,45.382734 L29.2076571,43.2404348 C29.2076571,41.3431182 30.2370622,40.3331771 32.1120714,40.3331771 C32.8034139,40.3331771 33.4485077,40.4708964 33.4485077,40.4708964 C33.648272,40.5016492 33.74062,40.6087642 33.74062,40.7770877 L33.74062,41.7103695 C33.74062,41.8789902 33.6330547,41.970803 33.4485077,41.9552037 C33.4485077,41.9552037 32.787749,41.8632423 32.2191892,41.8632423 C31.2205171,41.8632423 30.8976717,42.4447236 30.8976717,43.271039 L30.8976717,45.3366791 C30.8976717,46.1940445 31.2513992,46.760075 32.2347048,46.760075 C32.8338484,46.760075 33.4640234,46.6682622 33.4640234,46.6682622 C33.6329055,46.6529601 33.7404709,46.7296193 33.7404709,46.8979428 L33.7404709,47.8312247 C33.74062,47.9993996 33.6636385,48.1065146 33.4485077,48.152421" id="path4062_4_" fill="#FF8000"/><path d="M40.3176234,48.1371189 L39.0727892,48.1371189 C38.9039071,48.1371189 38.7657579,47.9993996 38.6887763,47.8463782 L36.5989348,43.8526688 L38.5042294,40.7769391 C38.5964283,40.6389228 38.7345774,40.4860499 38.9039071,40.4860499 L40.1487413,40.4860499 C40.3176234,40.4860499 40.4096731,40.6389228 40.3176234,40.7769391 L38.4120305,43.821916 L40.5172385,47.8463782 C40.5942201,47.9840975 40.4866547,48.1371189 40.3176234,48.1371189 M36.214922,48.1371189 L35.1083861,48.1371189 C34.939504,48.1371189 34.8162738,48.0147018 34.8162738,47.8463782 L34.8162738,37.5636387 C34.8162738,37.394721 34.939504,37.272601 35.1083861,37.272601 L36.214922,37.272601 C36.3838041,37.272601 36.5070343,37.394721 36.5070343,37.5636387 L36.5070343,47.8463782 C36.5068851,48.0147018 36.3838041,48.1371189 36.214922,48.1371189" id="path4064_4_" fill="#FF8000"/><path d="M44.8816177,44.9388235 L43.5909824,44.9388235 C42.7611924,44.9388235 42.4229806,45.2909212 42.4229806,45.9489131 C42.4229806,46.5302458 42.7611924,46.8670414 43.4371684,46.8670414 C43.9135293,46.8670414 44.4361389,46.6834158 44.8816177,46.4538837 L44.8816177,44.9388235 L44.8816177,44.9388235 Z M46.2798183,48.1371189 L45.2504132,48.1371189 C45.0815311,48.1371189 44.9585992,48.0147018 44.9585992,47.8463782 L44.9585992,47.7088076 C44.4667226,48.0147018 43.8214796,48.2902888 43.0989566,48.2902888 C41.6087062,48.2902888 40.7325184,47.5401869 40.7325184,45.9949681 C40.7325184,44.4186994 41.7006068,43.6384389 43.4062862,43.6384389 C43.929045,43.6384389 44.6820026,43.6992018 44.8814685,43.7304003 L44.8814685,43.1181662 C44.8814685,42.3223065 44.5280394,41.8939952 43.6215662,41.8939952 C42.7149437,41.8939952 41.5621592,42.1541315 41.5621592,42.1541315 C41.3779106,42.1998894 41.2703453,42.0777694 41.2703453,41.9091488 L41.2703453,40.9760155 C41.2703453,40.8073948 41.3779106,40.700577 41.5621592,40.654522 C41.5621592,40.654522 42.5611297,40.3333257 43.8519142,40.3333257 C45.8956563,40.3333257 46.5716323,41.2820582 46.5716323,43.1183148 L46.5716323,47.8465268 C46.5717814,48.0147018 46.4488496,48.1371189 46.2798183,48.1371189 L46.2798183,48.1371189 Z" id="path4066_4_" fill="gray"/><path d="M53.4255307,48.1371189 L52.3192932,48.1371189 C52.1504111,48.1371189 52.02733,48.0147018 52.02733,47.8463782 L52.02733,43.0874134 C52.02733,42.3686586 51.8120501,41.9090002 50.9979249,41.9090002 C50.521564,41.9090002 49.9989544,42.1233787 49.5686929,42.3530593 L49.5686929,47.8463782 C49.5686929,48.0147018 49.4459103,48.1371189 49.2767298,48.1371189 L48.1704923,48.1371189 C48.0011626,48.1371189 47.87838,48.0147018 47.87838,47.8463782 L47.87838,40.7769391 C47.87838,40.6086156 48.0011626,40.4860499 48.1704923,40.4860499 L49.1998974,40.4860499 C49.3689287,40.4860499 49.4920097,40.6086156 49.4920097,40.7769391 L49.4920097,41.0066198 C49.9373393,40.6698242 50.598098,40.3331771 51.4736891,40.3331771 C53.148934,40.3331771 53.7173446,41.3431182 53.7173446,42.9345406 L53.7173446,47.8463782 C53.7173446,48.0147018 53.594562,48.1371189 53.4255307,48.1371189" id="path4068_4_" fill="gray"/><path d="M58.8655636,42.1082251 C58.4508177,41.9399016 57.9898233,41.8173359 57.5749283,41.8173359 C56.7296226,41.8173359 56.4070757,42.3530593 56.4070757,43.1181662 L56.4070757,45.4899976 C56.4070757,46.2551045 56.7296226,46.7905307 57.5749283,46.7905307 C57.9898233,46.7905307 58.4508177,46.6375094 58.8655636,46.4385816 L58.8655636,42.1082251 L58.8655636,42.1082251 Z M60.2639134,48.1371189 L59.2342099,48.1371189 C59.0651786,48.1371189 58.942396,48.0147018 58.942396,47.8463782 L58.942396,47.7548625 C58.466035,48.045306 57.8822579,48.2902888 57.2214992,48.2902888 C55.5156705,48.2902888 54.7167627,47.2494463 54.7167627,45.6122661 L54.7167627,43.0107541 C54.7167627,41.3734254 55.5156705,40.3331771 57.2214992,40.3331771 C57.851525,40.3331771 58.4047183,40.5166542 58.8657127,40.7464834 L58.8657127,37.5636387 C58.8657127,37.394721 58.9887938,37.272601 59.1578251,37.272601 L60.2640626,37.272601 C60.4330939,37.272601 60.5561749,37.394721 60.5561749,37.5636387 L60.5561749,47.8463782 C60.5560257,48.0147018 60.4329447,48.1371189 60.2639134,48.1371189 L60.2639134,48.1371189 Z" id="path4070_4_" fill="gray"/><path d="M66.0112759,43.1181662 C66.0112759,42.3532079 65.7036479,41.8173359 64.8584914,41.8173359 C64.4435964,41.8173359 63.9672355,41.9706544 63.5523405,42.1694337 L63.5523405,46.6834158 L64.7354104,46.6834158 C65.6576977,46.6834158 66.0112759,46.1787423 66.0112759,45.4134869 L66.0112759,43.1181662 L66.0112759,43.1181662 Z M64.8893736,48.1371189 L62.154289,48.1371189 C61.9849593,48.1371189 61.8621767,48.0147018 61.8621767,47.8463782 L61.8621767,37.5636387 C61.8621767,37.394721 61.9849593,37.272601 62.154289,37.272601 L63.2605265,37.272601 C63.429707,37.272601 63.5524897,37.394721 63.5524897,37.5636387 L63.5524897,40.8072463 C64.0134841,40.5319564 64.5820439,40.3331771 65.2120697,40.3331771 C66.9176,40.3331771 67.7017381,41.3735739 67.7017381,43.0107541 L67.7017381,45.4590962 C67.7015889,47.1268806 66.7945189,48.1371189 64.8893736,48.1371189 L64.8893736,48.1371189 Z" id="path4072_4_" fill="#FF8000"/><path d="M74.5551889,48.1371189 L73.5256347,48.1371189 C73.3566034,48.1371189 73.2336715,48.0147018 73.2336715,47.8463782 L73.2336715,47.6166976 C72.7881927,47.9537903 72.1272848,48.2902888 71.2513954,48.2902888 C69.5764489,48.2902888 69.007889,47.2801991 69.007889,45.6887768 L69.007889,40.7769391 C69.007889,40.6086156 69.1306717,40.4860499 69.3000014,40.4860499 L70.4065372,40.4860499 C70.5754194,40.4860499 70.6985004,40.6086156 70.6985004,40.7769391 L70.6985004,45.535904 C70.6985004,46.2551045 70.913482,46.7138715 71.7277563,46.7138715 C72.203968,46.7138715 72.7265776,46.5000872 73.1569883,46.270258 L73.1569883,40.7769391 C73.1569883,40.6086156 73.2799201,40.4860499 73.4488022,40.4860499 L74.5551889,40.4860499 C74.7242202,40.4860499 74.8471521,40.6086156 74.8471521,40.7769391 L74.8471521,47.8463782 C74.8471521,48.0147018 74.724071,48.1371189 74.5551889,48.1371189" id="path4074_4_" fill="#FF8000"/><path d="M78.9655184,50.7690866 C78.9040524,50.9221079 78.8118535,51.044525 78.6429714,51.044525 L77.397988,51.044525 C77.2291059,51.044525 77.1063233,50.9068058 77.16764,50.7540816 L78.0433803,48.198476 L75.5999605,40.7770877 C75.5541594,40.6243634 75.6465075,40.4861985 75.8307561,40.4861985 L77.0448573,40.4861985 C77.2137394,40.4861985 77.3365221,40.5936106 77.3827707,40.761637 L78.9503011,45.6124147 L80.5945146,40.761637 C80.6559805,40.6089127 80.7635459,40.4861985 80.9325772,40.4861985 L82.1466784,40.4861985 C82.330927,40.4861985 82.4383432,40.6390713 82.3770265,40.7925384 L78.9655184,50.7690866 L78.9655184,50.7690866 Z" id="path4076_4_" fill="#FF8000"/></g></g></svg>

<svg width="100" height="60" xmlns="http://www.w3.org/2000/svg"><g fill="none" fill-rule="evenodd"><rect fill="#FFF" width="100" height="60" rx="4"/><path d="M66.49 18.634l-8.612-8.567s-1.116-1.112-2.692-1.112c0 0-1.576 0-2.692 1.112 0 0-1.115 1.11-1.115 2.68 0 0 0 1.57 1.115 2.68l2.095 2.077h-8.036s-1.595 0-2.711 1.12c0 0-1.126 1.111-1.126 2.69 0 0 0 1.58 1.126 2.7 0 0 1.116 1.112 2.711 1.112h8.036l-2.095 2.085s-1.115 1.111-1.115 2.68c0 0 0 1.57 1.115 2.681 0 0 1.116 1.102 2.692 1.102 0 0 1.576 0 2.692-1.102l8.603-8.577s1.116-1.111 1.116-2.68c0 0 0-1.57-1.106-2.68m-30.998-2.603s2.104 0 3.592 1.481c0 0 1.488 1.482 1.488 3.577 0 0 0 2.096-1.488 3.578 0 0-1.488 1.481-3.592 1.481 0 0-2.105 0-3.593-1.481 0 0-1.487-1.482-1.487-3.578 0 0 0-2.095 1.487-3.577 0 0 1.488-1.481 3.593-1.481m-13.646 32.12s-.707.138-1.337.138c-1.86 0-2.904-1.01-2.904-2.907V43.24c0-1.897 1.03-2.907 2.904-2.907.691 0 1.337.138 1.337.138.2.03.292.138.292.306v.933c0 .169-.108.26-.292.245 0 0-.661-.092-1.23-.092-.998 0-1.32.582-1.32 1.408v2.066c0 .857.353 1.423 1.336 1.423.6 0 1.23-.092 1.23-.092.168-.015.276.062.276.23v.933c0 .168-.077.276-.292.321m2.766-.015h-1.106a.282.282 0 0 1-.292-.29V37.563a.28.28 0 0 1 .292-.291h1.106c.17 0 .292.122.292.29v10.283a.282.282 0 0 1-.292.291m2.997.001h-1.107a.282.282 0 0 1-.292-.29v-7.07c0-.168.123-.291.292-.291h1.106c.17 0 .293.123.293.29v7.07a.282.282 0 0 1-.293.291m0-9.18h-1.106a.282.282 0 0 1-.292-.291v-1.102c0-.17.123-.291.292-.291h1.106c.17 0 .293.122.293.29v1.103c0 .168-.123.29-.293.29m5.84 9.196s-.707.138-1.337.138c-1.86 0-2.904-1.01-2.904-2.907V43.24c0-1.897 1.03-2.907 2.904-2.907.691 0 1.337.138 1.337.138.2.03.292.138.292.306v.933c0 .169-.108.26-.292.245 0 0-.661-.092-1.23-.092-.998 0-1.321.582-1.321 1.408v2.066c0 .857.353 1.423 1.337 1.423.599 0 1.229-.092 1.229-.092.169-.015.276.062.276.23v.933c0 .168-.076.276-.291.321m6.869-.015h-1.245c-.17 0-.307-.138-.384-.29l-2.09-3.994 1.905-3.076c.092-.138.23-.291.4-.291h1.245c.169 0 .26.153.169.29l-1.906 3.046 2.105 4.024c.077.138-.03.291-.2.291m-4.102 0h-1.107a.282.282 0 0 1-.292-.29V37.563c0-.17.124-.291.292-.291h1.107c.169 0 .292.122.292.29v10.283a.282.282 0 0 1-.292.291" fill="#FF8000"/><path d="M44.882 44.939H43.59c-.83 0-1.168.352-1.168 1.01 0 .581.338.918 1.014.918.477 0 1-.184 1.445-.413v-1.515zm1.398 3.198h-1.03a.282.282 0 0 1-.291-.29v-.138c-.492.306-1.138.581-1.86.581-1.49 0-2.366-.75-2.366-2.295 0-1.576.968-2.357 2.673-2.357.523 0 1.276.061 1.475.092v-.612c0-.796-.353-1.224-1.26-1.224-.906 0-2.059.26-2.059.26-.184.046-.292-.076-.292-.245v-.933c0-.169.108-.275.292-.321 0 0 1-.322 2.29-.322 2.044 0 2.72.95 2.72 2.785v4.729c0 .168-.123.29-.292.29zm7.146 0h-1.107a.282.282 0 0 1-.292-.29v-4.76c0-.718-.215-1.178-1.03-1.178-.475 0-.998.214-1.428.444v5.493a.282.282 0 0 1-.292.291H48.17a.282.282 0 0 1-.292-.29v-7.07c0-.168.123-.291.292-.291h1.03c.169 0 .292.123.292.29v.23a3.244 3.244 0 0 1 1.982-.673c1.675 0 2.243 1.01 2.243 2.602v4.911a.281.281 0 0 1-.291.291m5.44-6.029c-.415-.168-.876-.29-1.291-.29-.845 0-1.168.535-1.168 1.3v2.372c0 .765.323 1.3 1.168 1.3.415 0 .876-.152 1.29-.351v-4.33zm1.398 6.03h-1.03a.282.282 0 0 1-.292-.292v-.091c-.476.29-1.06.535-1.72.535-1.706 0-2.505-1.04-2.505-2.678v-2.601c0-1.638.799-2.678 2.504-2.678.63 0 1.184.184 1.645.413v-3.182c0-.17.123-.291.292-.291h1.106c.17 0 .292.122.292.29v10.283a.282.282 0 0 1-.292.291z" fill="gray"/><path d="M66.011 43.118c0-.765-.307-1.3-1.153-1.3-.414 0-.89.153-1.306.351v4.514h1.183c.923 0 1.276-.504 1.276-1.27v-2.295zm-1.122 5.02h-2.735a.282.282 0 0 1-.292-.292V37.564c0-.17.123-.291.292-.291h1.107a.28.28 0 0 1 .291.29v3.244a3.245 3.245 0 0 1 1.66-.474c1.706 0 2.49 1.04 2.49 2.678v2.448c0 1.668-.907 2.678-2.813 2.678zm9.666-.001h-1.03a.282.282 0 0 1-.291-.29v-.23a3.244 3.244 0 0 1-1.983.673c-1.675 0-2.243-1.01-2.243-2.601v-4.912c0-.168.123-.291.292-.291h1.107c.168 0 .292.123.292.29v4.76c0 .72.214 1.178 1.029 1.178.476 0 .999-.214 1.429-.444v-5.493c0-.168.123-.291.292-.291h1.106c.17 0 .292.123.292.29v7.07a.282.282 0 0 1-.292.291m4.411 2.633c-.062.152-.154.275-.323.275h-1.245c-.169 0-.292-.138-.23-.29l.875-2.557-2.443-7.42c-.046-.154.047-.292.23-.292h1.215c.169 0 .292.108.338.276l1.567 4.85 1.645-4.85c.061-.153.169-.276.338-.276h1.214c.184 0 .291.153.23.307l-3.411 9.976z" fill="#FF8000"/></g></svg>
